X: 1
T: Condon's Frolics
R: jig
M: 6/8
L: 1/8
K: Ador
|eAB c2d|edc BAG|eAB c2d|e2d eag|
eAB c2d|edc ~B3|GBd gdB|1~A3 ABd:|2~A3 A2d||
|:eaa efg|dec BAG|cBc dcd|e2d efg|
eaa efg|dec BAB|GBd gdB|1~A3 A2d:|2~A3 ABd|


Tune 1244	Setting 14547

